!!!ONB: MCCC : IJH0432_02 : Extracted Monophonic Melody
!!!COM: Haydn, Joseph
!!!OPR: String Quartet in D major
!!!OMV: 2
!!!SCT: Hob.III:70 ; Op.71 No.2
!!!ODT: 1793///
**kern
*thru
*k[f#c#g#]
*A:
*clefF
*M3/4
4e
4a
4cc#
=1
4f#
4b
4dd
=2
4g#
4ee
8ff#
8dd
=3
8cc#
8b
8a
4r
8cc#
=4
16.dd
32ee
16.cc#
32dd
8b
4r
8dd
=5
16.ee
32ff#
16.gg#
32aa
8.ee
16ccc#
16.bb
32aa
16.gg#
32ff#
=6
6..ee
24ff#
24dd
24cc#
24b
24a
24g#
24f#
24e
24d
24c#
24B
=7
4A
4r
4a
=8
2dd
8.ff#
16ee
=9
4ee
4cc#
4a
=10
2dd
8.ff
16ee
=11
2.ee
=12
2.ee#
=13
2ff#
4ee
=14
4dd#
4ee
8.a#
16b
=15
4b
2r
=16
4b
4ee
4gg#
=17
8.cc#
16cc#
4ff#
8.aa
48gg#
48ff#
48ee
=18
8dd#
8bb
4.bb
16ccc#
16ddd#
=19
8eee
8bb
4.bb
8ggg#
=20
8aaa
8fff#
2ddd#
=21
8eee
8bb
6..bb[
48bb]
16eee
16ggg#
16eee
=22
8aaa
8fff#
2ddd#
=23
3..eee[
24eee]
8ee
=24
3..gg[
24gg]
8cc
=25
2ff
4ee
=26
4.b
8a#
8a
8d#
=27
8e
8g#
8b
16aa
16gg#
16ff#
16ee
16dd#
16cc#
=28
4.b
8a#
8a
8d#
=29
16e
16g#
16b
16dd#
16ff#
16ee
16aa
16gg#
16ff#
16ee
16dd#
16cc#
=30
4.b
8a#
8a
8d#
=31
4e
4a
4g#
=32
16f#
16g#
16a
16a#
16b
16b#
16dd#
16cc#
16b
16a
16g#
16f#
=33
8e
8r
8e
8r
8e
8r
=34
2.e
=35
4e
4g
4cc
=36
4b
4dd
4ff
=37
4ee
4gg
4ccc
=38
4aa
4gg
8r
8ee
=39
16.ff
32gg
16.ee
32ff
8dd
4r
8ff
=40
16.gg
32aa
16.bb
32ccc
4.gg
8gg#
=41
2.aa[
=42
16aa]
16bb
16ccc#
16ddd
8aa
8aa
8r
8aa
=43
3..aa[
96aa]
32ccc
16.bb
32aa
=44
16.gg#
32aa
16.bb
32ccc
16.ddd
32ccc
16.bb
32aa
16.gg#
32ff
16.ee
32dd
=45
16.cc
32b
16.a
32g#
16.a
32e
16.c
32B
16.A
32c
16.B
32A
=46
16G#
16B
16e
16d#
16f#
16e
16g#
16f#
16a
16g#
16b
16a
=47
16cc#
16b
16dd
16cc#
16ee
16dd
16cc#
16b
16a
16g#
16f#
16e
=48
16d#
16e
8r
16g#
16a
8r
16b#
16cc#
8r
=49
24e#
24g#
24f#
8r
24a#
24cc#
24b
8r
24cc#
24ee
24dd
8r
=50
24G#
24B
24d
24e
24g#
24b
24dd
24ee
24gg#
24bb
24ddd
24ccc#
24bb
24aa
24gg#
24ff#
24ee
24dd
=51
24cc#
24dd
24ee
24dd
24cc#
24b
8a
8b
8cc
8cc#
=52
24dd
24ee
24ff#
24ee
24dd
24cc#
8b
8cc#
8dd
8dd#
=53
24ee
24ff#
24gg#
24aa
24bb
24ccc#
24ddd
24ccc#
24bb
24aa
24gg#
24ff#
24ee
24dd
24cc#
24b
24a
24g#
=54
24f#
24e
24d
24c#
24B
24A
24G#
24A
24B
24c#
24d
24e
24f#
24g#
24a
24b
24dd
24g#
=55
2a
4cc#
=56
2dd
8.ee
32dd
32ee
=57
4ff
4..a
32g#
32a
=58
8g#
8ee
4.ee
16ff#
16ee
=59
8.ee
16cc#
4a
4r
=60
6..r
24ddd
24bb
24aa
24gg#
24ff#
24ee
24dd
24cc#
24b
24a
24g#
=61
3..aa[
24aa]
8a
=62
3..ccc[
24ccc]
8ff
=63
2bb-
4aa
=64
4.ee
8dd#
8dd
8g#
=65
24a
24cc#
24dd
24ee
24ff#
24gg#
24aa
24gg#
24bb
24aa
24ccc#
24bb
24ddd
24ccc#
24bb
24aa
24gg#
24ff#
=66
4.ee
8dd#
8dd
8g#
=67
24a
24cc#
24dd
24ee
24ff#
24gg#
24aa
24gg#
24bb
24aa
24ccc#
24bb
24ddd
24ccc#
24bb
24aa
24gg#
24ff#
=68
4.ee
8dd#
8dd
8g#
=69
24a
24dd#
24ff#
24aa
24ff#
24dd#
24ee
24ff#
24gg#
24aa
24bb
24ccc#
8ddd
8r
=70
6..r
24eee
24ddd
24ccc#
24bb
24aa
24gg#
24aa
24ee
24gg#
24aa
24ee
=71
6..r
24fff#
24eee
24ddd
24ccc#
24bb
24aa#
24bb
24ff#
24aa#
24bb
24ff#
=72
6..r
24ddd
24ccc#
24bb
24aa
24gg#
24ff#
24ee
24dd
24cc#
24dd
24b
=73
24a
24ee
24dd
24cc#
24b
24a
24g#
24f#
24e
24d
24c#
24B
24A
24G#
24A
24B
24c#
24d
=74
8c#
8ee
4.ee
8g#
=75
8a
8r
8a
8r
8a
8r
=76
8a
8r
8aa
4.r
==
*-
